src/icons/k8s-node.svg

<?xml version="1.0" encoding="UTF-8"?>
<svg xmlns="http://www.w3.org/2000/svg" xmlns:xlink="http://www.w3.org/1999/xlink" width="32.978184" height="32" viewBox="0 0 32.978184 32" version="1.1">
<g id="surface1">
<path style=" stroke:none;fill-rule:nonzero;fill:rgb(19.607843%,42.352942%,89.803922%);fill-opacity:1;" d="M 16.378906 0.847656 C 16.105469 0.859375 15.832031 0.929688 15.585938 1.046875 L 4.722656 6.238281 C 4.15625 6.507812 3.742188 7.023438 3.601562 7.636719 L 0.921875 19.292969 C 0.796875 19.835938 0.898438 20.402344 1.203125 20.871094 C 1.238281 20.925781 1.277344 20.980469 1.320312 21.035156 L 8.839844 30.382812 C 9.234375 30.871094 9.832031 31.15625 10.460938 31.15625 L 22.515625 31.152344 C 23.148438 31.152344 23.746094 30.871094 24.140625 30.378906 L 31.65625 21.03125 C 32.050781 20.542969 32.199219 19.898438 32.058594 19.289062 L 29.375 7.632812 C 29.234375 7.019531 28.820312 6.507812 28.25 6.234375 L 17.386719 1.046875 C 17.074219 0.898438 16.726562 0.828125 16.378906 0.847656 Z M 16.378906 0.847656 "/>
<path style=" stroke:none;fill-rule:nonzero;fill:rgb(100%,100%,100%);fill-opacity:1;" d="M 16.375 0.00390625 C 16.082031 0.0195312 15.796875 0.0898438 15.535156 0.214844 L 4.070312 5.695312 C 3.46875 5.980469 3.03125 6.523438 2.882812 7.167969 L 0.0546875 19.472656 C -0.078125 20.046875 0.03125 20.648438 0.351562 21.140625 C 0.390625 21.203125 0.433594 21.257812 0.476562 21.3125 L 8.414062 31.183594 C 8.828125 31.699219 9.460938 32 10.128906 32 L 22.851562 31.996094 C 23.519531 31.996094 24.152344 31.695312 24.566406 31.179688 L 32.5 21.3125 C 32.914062 20.792969 33.070312 20.117188 32.921875 19.472656 L 30.089844 7.164062 C 29.941406 6.519531 29.503906 5.980469 28.90625 5.691406 L 17.4375 0.214844 C 17.109375 0.0585938 16.742188 -0.015625 16.375 0.00390625 Z M 16.378906 0.847656 C 16.726562 0.828125 17.074219 0.898438 17.386719 1.046875 L 28.25 6.234375 C 28.820312 6.507812 29.230469 7.023438 29.375 7.632812 L 32.058594 19.289062 C 32.199219 19.902344 32.050781 20.542969 31.65625 21.03125 L 24.140625 30.378906 C 23.746094 30.871094 23.148438 31.15625 22.515625 31.152344 L 10.460938 31.15625 C 9.828125 31.15625 9.230469 30.871094 8.839844 30.382812 L 1.320312 21.035156 C 1.277344 20.984375 1.238281 20.929688 1.203125 20.871094 C 0.898438 20.402344 0.796875 19.835938 0.921875 19.292969 L 3.601562 7.636719 C 3.742188 7.023438 4.15625 6.511719 4.722656 6.238281 L 15.585938 1.046875 C 15.832031 0.929688 16.105469 0.859375 16.378906 0.847656 Z M 16.378906 0.847656 "/>
<path style=" stroke:none;fill-rule:nonzero;fill:rgb(100%,100%,100%);fill-opacity:1;" d="M 16.457031 7.015625 C 16.203125 7.007812 9.152344 10.472656 9.058594 10.652344 C 8.835938 11.078125 7.230469 18.480469 7.328125 18.640625 C 7.382812 18.734375 8.539062 20.199219 9.894531 21.894531 L 12.363281 24.980469 L 16.425781 24.984375 L 20.488281 24.984375 L 23.070312 21.757812 L 25.65625 18.53125 L 24.75 14.5625 C 24.253906 12.382812 23.808594 10.5625 23.761719 10.519531 C 23.636719 10.394531 16.59375 7.019531 16.457031 7.015625 Z M 16.816406 8.746094 L 18.476562 9.230469 L 16.816406 9.710938 L 15.152344 9.230469 Z M 15.152344 9.414062 L 16.707031 9.875 L 16.703125 12.039062 L 15.152344 11.183594 Z M 18.476562 9.414062 L 18.476562 11.183594 L 16.929688 12.039062 L 16.921875 9.875 Z M 14.457031 12.367188 L 16.121094 12.847656 L 14.457031 13.332031 L 12.796875 12.847656 Z M 18.496094 12.367188 L 20.160156 12.847656 L 18.496094 13.332031 L 16.835938 12.847656 Z M 12.796875 13.03125 L 14.351562 13.496094 L 14.34375 15.660156 L 12.796875 14.800781 Z M 16.121094 13.03125 L 16.121094 14.800781 L 14.570312 15.660156 L 14.566406 13.496094 Z M 16.835938 13.03125 L 18.390625 13.496094 L 18.382812 15.660156 L 16.835938 14.800781 Z M 20.160156 13.03125 L 20.160156 14.800781 L 18.609375 15.660156 L 18.601562 13.496094 Z M 13.851562 15.804688 C 14.347656 15.820312 13.964844 16.320312 14.523438 16.585938 C 15.125 16.871094 15.246094 16.15625 15.625 16.703125 C 16 17.246094 15.289062 17.109375 15.34375 17.769531 C 15.394531 18.433594 16.078125 18.183594 15.792969 18.78125 C 15.507812 19.382812 15.269531 18.695312 14.722656 19.070312 C 14.175781 19.449219 14.734375 19.914062 14.074219 19.964844 C 13.414062 20.019531 13.886719 19.472656 13.289062 19.1875 C 12.691406 18.902344 12.566406 19.617188 12.1875 19.070312 C 11.8125 18.523438 12.527344 18.660156 12.472656 18 C 12.417969 17.339844 11.738281 17.589844 12.023438 16.988281 C 12.308594 16.390625 12.542969 17.078125 13.089844 16.699219 C 13.636719 16.324219 13.078125 15.859375 13.742188 15.804688 C 13.78125 15.804688 13.820312 15.800781 13.851562 15.804688 Z M 18.121094 16.464844 C 19.007812 16.492188 18.148438 17.320312 18.957031 17.683594 C 19.761719 18.042969 19.8125 16.851562 20.417969 17.496094 C 21.027344 18.136719 19.832031 18.117188 20.148438 18.941406 C 20.464844 19.769531 21.339844 18.960938 21.316406 19.84375 C 21.289062 20.726562 20.460938 19.871094 20.097656 20.679688 C 19.738281 21.484375 20.929688 21.53125 20.289062 22.140625 C 19.644531 22.746094 19.664062 21.554688 18.839844 21.871094 C 18.011719 22.183594 18.824219 23.0625 17.9375 23.035156 C 17.054688 23.011719 17.910156 22.183594 17.105469 21.820312 C 16.296875 21.460938 16.25 22.652344 15.640625 22.007812 C 15.035156 21.367188 16.226562 21.386719 15.910156 20.558594 C 15.597656 19.734375 14.71875 20.542969 14.746094 19.660156 C 14.769531 18.777344 15.597656 19.632812 15.960938 18.824219 C 16.320312 18.019531 15.128906 17.972656 15.773438 17.363281 C 16.414062 16.757812 16.394531 17.949219 17.222656 17.632812 C 18.046875 17.316406 17.238281 16.441406 18.121094 16.464844 Z M 13.890625 16.929688 C 13.351562 16.929688 12.917969 17.367188 12.917969 17.902344 C 12.917969 18.441406 13.351562 18.875 13.890625 18.875 C 14.425781 18.875 14.863281 18.441406 14.863281 17.902344 C 14.863281 17.367188 14.425781 16.929688 13.890625 16.929688 Z M 18.03125 17.808594 C 16.957031 17.808594 16.085938 18.679688 16.085938 19.75 C 16.085938 20.824219 16.957031 21.695312 18.03125 21.695312 C 19.101562 21.695312 19.972656 20.824219 19.972656 19.75 C 19.972656 18.679688 19.101562 17.808594 18.03125 17.808594 Z M 18.03125 17.808594 "/>
</g>
</svg>

<svg role="img" viewBox="0 0 32.978 32" xmlns="http://www.w3.org/2000/svg"><path d="M16.379.848a2.066 2.066 0 0 0-.793.199L4.723 6.238a2.06 2.06 0 0 0-1.121 1.399L.922 19.293a2.046 2.046 0 0 0 .398 1.742l7.52 9.348c.394.488.992.773 1.62.773l12.056-.004c.632 0 1.23-.28 1.625-.773l7.515-9.348a2.045 2.045 0 0 0 .403-1.742L29.375 7.633a2.063 2.063 0 0 0-1.125-1.399L17.387 1.047a2.082 2.082 0 0 0-1.008-.2m0 0" style="stroke:none;fill-rule:nonzero;fill:rgb(19.607843%,42.352942%,89.803922%);fill-opacity:1"/><path d="M16.375.004a2.22 2.22 0 0 0-.84.21L4.07 5.696a2.171 2.171 0 0 0-1.187 1.473L.055 19.473a2.164 2.164 0 0 0 .297 1.668c.039.062.082.117.125.172l7.937 9.87A2.2 2.2 0 0 0 10.13 32l12.723-.004c.668 0 1.3-.3 1.714-.816l7.934-9.867a2.17 2.17 0 0 0 .422-1.84L30.09 7.164a2.185 2.185 0 0 0-1.184-1.473L17.438.215a2.206 2.206 0 0 0-1.063-.211m.004.844c.348-.02.695.05 1.008.199L28.25 6.234c.57.274.98.79 1.125 1.399l2.684 11.656a2.042 2.042 0 0 1-.403 1.742l-7.515 9.348a2.065 2.065 0 0 1-1.625.773l-12.055.004c-.633 0-1.23-.285-1.621-.773l-7.52-9.348a2.046 2.046 0 0 1-.398-1.742l2.68-11.656a2.068 2.068 0 0 1 1.12-1.399l10.864-5.191c.246-.117.52-.188.793-.2m.078 6.169c-.254-.008-7.305 3.457-7.398 3.636-.223.426-1.829 7.828-1.73 7.989.054.093 1.21 1.558 2.566 3.254l2.468 3.085 4.063.004h4.062l2.582-3.226 2.586-3.227-.906-3.968c-.496-2.18-.941-4-.988-4.043-.125-.125-7.168-3.5-7.305-3.504m.36 1.73 1.66.484-1.66.48-1.665-.48Zm-1.665.668 1.555.461-.004 2.164-1.55-.855Zm3.325 0v1.77l-1.547.855-.008-2.164Zm-4.02 2.953 1.664.48-1.664.485-1.66-.484Zm4.04 0 1.663.48-1.664.485-1.66-.484Zm-5.7.664 1.555.465-.008 2.164-1.547-.86Zm3.324 0v1.77l-1.55.86-.005-2.165Zm.715 0 1.555.465-.008 2.164-1.547-.86Zm3.324 0v1.77l-1.55.86-.008-2.165Zm-6.308 2.774c.496.015.113.515.671.78.602.286.723-.429 1.102.118.375.543-.336.406-.281 1.067.05.664.734.414.449 1.011-.285.602-.523-.086-1.07.29-.547.378.011.843-.649.894-.66.055-.187-.492-.785-.777-.598-.286-.723.43-1.101-.118-.376-.547.34-.41.285-1.07-.055-.66-.735-.41-.45-1.012.286-.597.52.09 1.067-.289.547-.375-.012-.84.652-.894.04 0 .078-.004.11 0m4.27.66c.886.027.026.855.835 1.219.805.359.855-.832 1.461-.188.61.64-.586.621-.27 1.445.317.829 1.192.02 1.168.903-.027.883-.855.027-1.218.836-.36.804.832.851.191 1.46-.644.606-.625-.585-1.45-.269-.827.313-.015 1.192-.901 1.164-.883-.023-.028-.851-.833-1.215-.808-.36-.855.832-1.464.188-.606-.64.586-.621.27-1.45-.313-.824-1.192-.015-1.165-.898.024-.883.852-.027 1.215-.836.36-.804-.832-.851-.188-1.46.641-.606.622.585 1.45.269.824-.317.015-1.192.898-1.168m-4.231.465a.973.973 0 1 0 0 1.945.973.973 0 0 0 0-1.945m4.14.879a1.945 1.945 0 0 0-1.945 1.941c0 1.074.871 1.945 1.945 1.945a1.944 1.944 0 0 0 0-3.887m0 0" style="stroke:none;fill-rule:nonzero;fill:rgb(100%,100%,100%);fill-opacity:1"/></svg>
